X:1
T:Children's Medley
T:Polly Wolly Doodle (Unknown), Oh! Susanna (Stephen Foster), Unknown Piece
T:An Arrangement by Luis Martinez 2013
T:An Arrangement by Luis Martinez 2013
Z:An Arrangement by Luis Martinez 2013
%%score { 1 | 2 }
L:1/8
Q:1/4=200
M:4/4
K:C
V:1 treble nm="Piano" snm="Pno."
V:2 treble 
V:1
"^Prestissimo"!8va(! z8 | z4 z2 cd | [ce]2 [ce]2 c2 c2 | [ce]2 [ce]2 c2 c2 | [ce]2 [ce]2 f2 e2 | %5
 [Bd]6 B2 | [Bd]2 [Bd]2 B2 B2 | [Bd]2 [Bd]2 B2 [Bd]2 | g2 g2 f2 d2 | c6 cd | [ce]6 cd | [ce]6 cd | %12
 [ce]2 [ce]2 f2 e2 | [Bd]6 B2 | [Bd]2 [Bd]2 B2 B2 | [Bd]2 [Bd]2 B2 d2 | g2 g2 f2 d2 | c6 cd | %18
 e2 g2 g3 a | g2 e2 c3 d | e2 e2 d2 c2 | [Bd]6 cd | e2 g2 g3 a | g2 e2 c3 d | e2 e2 d2 d2 | c8 | %26
 [cf]4 [cf]4 | [cfa]2 [cfa]6 | g2 g2 e2 c2 | d6 cd | e2 g2 g3 a | g2 e2 c3 d | e2 e2 d2 d2 | c8 | %34
 z8 | z8 | z8 | G2 c4 d2 | e4 c4 | A2 c4 A2 | G8 | z2 G4 c2 | e4 c4 | g8 | e8 | G2 c4 d2 | e4 c4 | %47
 z2 A2 c2 A2 | G8 | g2 e4 g2 | f2 d4 e2 | [Gc]8 | z4 B3 c | d8 | z2 G2 c2 d2 | [Gce]8 | %56
 z2 c2 e2 g2 | a4 g4 | f4 d4 | [Bdg]8 | z2 f2 e2 d2 | [Gc]8 | z2 A2 G2 A2 | [Gc]8 | z4 z2 cd | %65
 [ce]2 [ce]2 [ce]2 [ce]2 | [eg]2 e2 d2 c2 | [GBd]8 | z4 z2 ef |: [eg]2 [eg]2 [eg]2 [eg]2 | %70
 g2 e2 d2 c2 | A2 c2 c2 c2 | d2 c2 B2 A2 | G2 e6 | G2 d6 |1 c8 | z4 z2 ef :|2 c8 || %78
 z4!8va)! !>![cegc']4 |] %79
V:2
 C2 E2 G,2 E2 | C2 E2 G,2 E2 | C2 E2 G,2 E2 | C2 E2 G,2 E2 | C2 E2 G,2 E2 | B,2 D2 G,2 D2 | %6
 B,2 D2 G,2 D2 | B,2 D2 G,2 D2 | G,2 G,2 A,2 B,2 | C2 E2 G,2 E2 | C2 E2 G,2 E2 | C2 E2 G,2 E2 | %12
 C2 E2 G,2 E2 | B,2 D2 G,2 D2 | B,2 D2 G,2 D2 | B,2 D2 G,2 D2 | G,2 G,2 A,2 B,2 | C2 E2 G,2 E2 | %18
 C2 E2 G,2 E2 | C2 E2 G,2 E2 | C2 E2 G,2 E2 | B,2 D2 G,2 D2 | C2 E2 G,2 E2 | C2 E2 G,2 E2 | %24
 G,2 G,2 A,2 B,2 | C2 E2 G,2 E2 | C2 F2 A,2 F2 | C2 F2 A,2 F2 | C2 E2 G,2 E2 | B,2 D2 G,2 D2 | %30
 C2 E2 G,2 E2 | C2 E2 G,2 E2 | G,2 G,2 A,2 B,2 | C2 E2 G,2 E2 | C2 E2 G,2 E2 | C2 E2 G,2 E2 | %36
 C2 E2 G,2 E2 | C2 E2 G,2 E2 | C2 E2 G,2 E2 | C2 F2 A,2 F2 | C2 E2 G,2 E2 | [CE]2 E2 G,2 E2 | %42
 C2 E2 G,2 E2 | C2 E2 G,2 E2 | C2 E2 G,2 E2 | C2 E2 G,2 E2 | C2 E2 G,2 E2 | C2 F2 A,2 F2 | %48
 C2 E2 G,2 E2 | C2 E2 G,2 E2 | B,2 D2 G,2 D2 | C2 E2 G,2 E2 | C2 E2 G,2 E2 | B,2 D2 G,2 D2 | %54
 B,2 D2 G,2 D2 | C2 E2 G,2 E2 | C2 E2 G,2 E2 | C2 F2 A,2 F2 | C2 F2 A,2 F2 | B,2 D2 G,2 D2 | %60
 B,2 D2 G,2 D2 | C2 E2 G,2 E2 | C2 E2 G,2 E2 | C2 E2 G,2 E2 | C2 E2 G,2 E2 | C2 E2 G,2 E2 | %66
 C2 E2 G,2 E2 | B,2 D2 G,2 D2 | B,2 D2 G,2 D2 |: C2 E2 G,2 E2 | C2 E2 G,2 E2 | C2 F2 A,2 F2 | %72
 C2 F2 A,2 F2 | C2 E2 G,2 E2 | B,2 D2 G,2 D2 |1 C2 E2 G,2 E2 | C2 E2 G,2 E2 :|2 [CEG]3 A G2 E2 || %78
 C4 !>![CEG]4 |] %79

